suite-common/icons/assets/icons/unlink.svg

<svg xmlns="http://www.w3.org/2000/svg" fill-rule="evenodd" viewBox="0 0 12 12">
  <path d="M4.356 1.787a.53.53 0 0 0-.298.245c-.048.098-.048.101-.047.758.001.766.006.794.146.93.196.191.49.191.686 0 .141-.136.145-.165.146-.93.001-.656.001-.661-.047-.757a.5.5 0 0 0-.586-.246m2.942.063a2.7 2.7 0 0 0-.712.3c-.2.123-.954.869-1.022 1.011a.5.5 0 0 0 .096.56.5.5 0 0 0 .563.088c.037-.019.216-.184.397-.368.451-.455.588-.552.889-.63.155-.04.524-.041.677-.001.494.129.926.581 1.017 1.065.035.19.011.55-.048.72-.078.222-.155.324-.535.715-.44.452-.46.478-.474.616-.033.319.172.553.483.554.198 0 .254-.04.731-.518.459-.461.517-.538.671-.897.438-1.018.069-2.26-.852-2.869-.456-.301-.788-.397-1.367-.395-.269.001-.354.009-.514.049m-5.01 2.168c-.178.011-.212.019-.299.073a.492.492 0 0 0 .041.849c.082.04.129.044.585.053.272.006.597.002.721-.008.203-.017.233-.025.308-.079a.8.8 0 0 0 .144-.145c.058-.079.062-.096.062-.258s-.004-.179-.063-.264a.7.7 0 0 0-.15-.15c-.082-.054-.103-.058-.367-.072a10 10 0 0 0-.982.001m.872 1.546c-.119.058-.886.821-.991.986a2.42 2.42 0 0 0-.266 2.047c.209.677.857 1.313 1.543 1.511.28.081.409.099.724.099.325 0 .513-.033.8-.14.399-.15.537-.249 1.011-.725.457-.458.499-.518.499-.713a.47.47 0 0 0-.25-.435c-.108-.058-.348-.061-.45-.006a5 5 0 0 0-.421.391c-.444.447-.561.529-.879.611a1.8 1.8 0 0 1-.67 0 1.44 1.44 0 0 1-1.002-1.022 1.7 1.7 0 0 1 .038-.763c.076-.221.153-.324.534-.715.193-.199.376-.394.407-.434.105-.138.091-.417-.028-.561a.52.52 0 0 0-.599-.131m5.498 1.453c-.184.011-.221.02-.293.067a.49.49 0 0 0-.085.759c.137.141.165.146.93.146.65.001.661 0 .754-.045a.46.46 0 0 0 .245-.287.44.44 0 0 0-.001-.318c-.039-.132-.168-.267-.282-.296-.096-.025-.986-.042-1.268-.026m-1.37 1.171a.5.5 0 0 0-.262.309c-.009.04-.016.366-.016.723 0 .641.001.651.047.745a.494.494 0 0 0 .606.244.5.5 0 0 0 .28-.244c.046-.094.047-.103.046-.755 0-.47-.008-.685-.026-.745-.077-.264-.41-.4-.675-.277"/>
</svg>

<svg xmlns="http://www.w3.org/2000/svg" fill-rule="evenodd" viewBox="0 0 12 12"><path d="M4.356 1.787 C 4.232 1.826,4.110 1.926,4.058 2.032 C 4.010 2.130,4.010 2.133,4.011 2.790 C 4.012 3.556,4.017 3.584,4.157 3.720 C 4.353 3.911,4.647 3.911,4.843 3.720 C 4.984 3.584,4.988 3.555,4.989 2.790 C 4.990 2.134,4.990 2.129,4.942 2.033 C 4.840 1.826,4.579 1.716,4.356 1.787 M7.298 1.850 C 7.066 1.908,6.796 2.021,6.586 2.150 C 6.386 2.273,5.632 3.019,5.564 3.161 C 5.476 3.345,5.515 3.576,5.660 3.721 C 5.803 3.865,6.041 3.902,6.223 3.809 C 6.260 3.790,6.439 3.625,6.620 3.441 C 7.071 2.986,7.208 2.889,7.509 2.811 C 7.664 2.771,8.033 2.770,8.186 2.810 C 8.680 2.939,9.112 3.391,9.203 3.875 C 9.238 4.065,9.214 4.425,9.155 4.595 C 9.077 4.817,9.000 4.919,8.620 5.310 C 8.180 5.762,8.160 5.788,8.146 5.926 C 8.113 6.245,8.318 6.479,8.629 6.480 C 8.827 6.480,8.883 6.440,9.360 5.962 C 9.819 5.501,9.877 5.424,10.031 5.065 C 10.469 4.047,10.100 2.805,9.179 2.196 C 8.723 1.895,8.391 1.799,7.812 1.801 C 7.543 1.802,7.458 1.810,7.298 1.850 M2.288 4.018 C 2.110 4.029,2.076 4.037,1.989 4.091 C 1.672 4.287,1.696 4.778,2.030 4.940 C 2.112 4.980,2.159 4.984,2.615 4.993 C 2.887 4.999,3.212 4.995,3.336 4.985 C 3.539 4.968,3.569 4.960,3.644 4.906 C 3.689 4.873,3.754 4.808,3.788 4.761 C 3.846 4.682,3.850 4.665,3.850 4.503 C 3.850 4.341,3.846 4.324,3.787 4.239 C 3.752 4.189,3.684 4.121,3.637 4.089 C 3.555 4.035,3.534 4.031,3.270 4.017 C 2.950 4.001,2.582 4.001,2.288 4.018 M3.160 5.564 C 3.041 5.622,2.274 6.385,2.169 6.550 C 1.778 7.168,1.684 7.885,1.903 8.597 C 2.112 9.274,2.760 9.910,3.446 10.108 C 3.726 10.189,3.855 10.207,4.170 10.207 C 4.495 10.207,4.683 10.174,4.970 10.067 C 5.369 9.917,5.507 9.818,5.981 9.342 C 6.438 8.884,6.480 8.824,6.480 8.629 C 6.479 8.433,6.391 8.279,6.230 8.194 C 6.122 8.136,5.882 8.133,5.780 8.188 C 5.742 8.209,5.552 8.385,5.359 8.579 C 4.915 9.026,4.798 9.108,4.480 9.190 C 4.316 9.233,3.968 9.233,3.810 9.190 C 3.329 9.062,2.921 8.645,2.808 8.168 C 2.760 7.964,2.778 7.600,2.846 7.405 C 2.922 7.184,2.999 7.081,3.380 6.690 C 3.573 6.491,3.756 6.296,3.787 6.256 C 3.892 6.118,3.878 5.839,3.759 5.695 C 3.623 5.530,3.352 5.471,3.160 5.564 M8.658 7.017 C 8.474 7.028,8.437 7.037,8.365 7.084 C 8.099 7.260,8.059 7.616,8.280 7.843 C 8.417 7.984,8.445 7.989,9.210 7.989 C 9.860 7.990,9.871 7.989,9.964 7.944 C 10.087 7.883,10.171 7.785,10.209 7.657 C 10.248 7.526,10.248 7.474,10.208 7.339 C 10.169 7.207,10.040 7.072,9.926 7.043 C 9.830 7.018,8.940 7.001,8.658 7.017 M7.288 8.188 C 7.169 8.243,7.049 8.384,7.026 8.497 C 7.017 8.537,7.010 8.863,7.010 9.220 C 7.010 9.861,7.011 9.871,7.057 9.965 C 7.166 10.186,7.425 10.291,7.663 10.209 C 7.785 10.168,7.887 10.079,7.943 9.965 C 7.989 9.871,7.990 9.862,7.989 9.210 C 7.989 8.740,7.981 8.525,7.963 8.465 C 7.886 8.201,7.553 8.065,7.288 8.188 " stroke="none" fill-rule="evenodd" fill="black"></path></svg>
